build/svg/sw/res/sidebar/pageproppanel/format_L_nomal_24x24.svg

<?xml version="1.0" encoding="UTF-8" standalone="no"?>
<svg
   xmlns:dc="http://purl.org/dc/elements/1.1/"
   xmlns:cc="http://creativecommons.org/ns#"
   xmlns:rdf="http://www.w3.org/1999/02/22-rdf-syntax-ns#"
   xmlns:svg="http://www.w3.org/2000/svg"
   xmlns="http://www.w3.org/2000/svg"
   xmlns:sodipodi="http://sodipodi.sourceforge.net/DTD/sodipodi-0.dtd"
   xmlns:inkscape="http://www.inkscape.org/namespaces/inkscape"
   viewBox="0 0 26 26"
   version="1.1"
   id="svg6"
   sodipodi:docname="format_L_nomal_24x24.svg"
   inkscape:export-filename="/home/jupiter007/Libreoffice yaru theme fullcolor/build/sw/res/sidebar/pageproppanel/format_L_nomal_24x24.png"
   inkscape:export-xdpi="95"
   inkscape:export-ydpi="95"
   inkscape:version="0.92.5 (2060ec1f9f, 2020-04-08)">
  <metadata
     id="metadata12">
    <rdf:RDF>
      <cc:Work
         rdf:about="">
        <dc:format>image/svg+xml</dc:format>
        <dc:type
           rdf:resource="http://purl.org/dc/dcmitype/StillImage" />
      </cc:Work>
    </rdf:RDF>
  </metadata>
  <defs
     id="defs10" />
  <sodipodi:namedview
     pagecolor="#ffffff"
     bordercolor="#666666"
     borderopacity="1"
     objecttolerance="10"
     gridtolerance="10"
     guidetolerance="10"
     inkscape:pageopacity="0"
     inkscape:pageshadow="2"
     inkscape:window-width="1920"
     inkscape:window-height="1011"
     id="namedview8"
     showgrid="true"
     inkscape:zoom="25.673415"
     inkscape:cx="9.6819598"
     inkscape:cy="12.456833"
     inkscape:window-x="0"
     inkscape:window-y="32"
     inkscape:window-maximized="1"
     inkscape:current-layer="svg6">
    <inkscape:grid
       type="xygrid"
       id="grid830" />
  </sodipodi:namedview>
  <path
     sodipodi:nodetypes="cccccccccc"
     style="opacity:0.6;fill:#000000;stroke:#000000;stroke-width:2;stroke-linejoin:round;stroke-miterlimit:4;stroke-dasharray:none"
     id="path829"
     d="M 9,21 C 7,21 5.9999999,21 5.9999999,19 V 6.9999998 c 0,-2 1.0000001,-2 3.0000001,-2 h 8 c 2,0 3,0 3,2 V 10.40625 19 c 0,2 -1,2 -3,2 z"
     inkscape:connector-curvature="0" />
  <path
     inkscape:connector-curvature="0"
     d="M 9,21 C 7,21 5.9999999,21 5.9999999,19 V 6.9999998 c 0,-2 1.0000001,-2 3.0000001,-2 h 8 c 2,0 3,0 3,2 V 10.40625 19 c 0,2 -1,2 -3,2 z"
     id="path2"
     style="fill:#ffffff"
     sodipodi:nodetypes="cccccccccc" />
  <path
     d="M 8,5 V 7 H 6 V 8 H 8 V 18 H 6 v 1 h 2 v 2 h 1 v -2 h 8 v 2 h 1 v -2 h 2 V 18 H 18 V 8 h 2 V 7 H 18 V 5 H 17 V 7 H 9 V 5 Z m 1,3 h 8 V 18 H 9 Z"
     id="path4"
     inkscape:connector-curvature="0"
     style="fill:#762572"
     sodipodi:nodetypes="cccccccccccccccccccccccccccccccccc" />
</svg>

<svg xmlns="http://www.w3.org/2000/svg" viewBox="0 0 26 26"><path d="M9 21c-2 0-3 0-3-2V7c0-2 1-2 3-2h8c2 0 3 0 3 2v12c0 2-1 2-3 2z" opacity=".6" stroke="#000" stroke-width="2" stroke-linejoin="round"/><path d="M9 21c-2 0-3 0-3-2V7c0-2 1-2 3-2h8c2 0 3 0 3 2v12c0 2-1 2-3 2z" fill="#fff"/><path d="M8 5v2H6v1h2v10H6v1h2v2h1v-2h8v2h1v-2h2v-1h-2V8h2V7h-2V5h-1v2H9V5zm1 3h8v10H9z" fill="#762572"/></svg>
